X:1
T:Loyalty to Christ
T:Loyalty to Christ
T:Flora Hamilton Cassel
T:Elijah Taylor Cassel, 1894
T:Public Domain Courtesy of the Cyber Hymnal™
T:Public Domain Courtesy of the Cyber Hymnal™
C:Flora Hamilton Cassel
Z:Public Domain
Z:Courtesy of the Cyber Hymnal™
%%score ( 1 2 ) ( 3 4 )
L:1/8
Q:1/4=95
M:2/4
K:F
V:1 treble 
V:2 treble 
V:3 bass 
V:4 bass 
V:1
 C | [CF]>[CF] [CF][CF] | [CF]3 [EG] | [FA]>[FA] [FA][FA] | [FA]3 [Fc] | [Af]>[Af] [Af]2 | %6
w: 1.~From|o- ver hill and|plain there|comes the sig- nal|strain, ’Tis|loy- al- ty,|
w: 2.~O|hear, ye brave, the|sound that|moves the earth a-|round, ’Tis|loy- al- ty,|
w: 3.~Come,|join our loy- al|throng, we’ll|rout the gi- ant|wrong, ’Tis|loy- al- ty,|
w: 4.~The|strength of youth we|lay at|Je- sus’ feet to-|day, ’Tis|loy- al- ty,|
 [Ac]>[Ac] [Ac]2 | [FA]>[FA] [GB][FA] | [EG]3 C | [CF]>[CF] [CF][CF] | [CF]3 [EG] | %11
w: loy- al- ty,|loy- al- ty to|Christ; Its|mu- sic rolls a-|long, the|
w: loy- al- ty,|loy- al- ty to|Christ; A-|rise to dare and|do, ring|
w: loy- al- ty,|loy- al- ty to|Christ; Where|Sa- tan’s ban- ners|float we’ll|
w: loy- al- ty,|loy- al- ty to|Christ; His|Gos- pel we’ll pro-|claim, through-|
 [FA]>[FA] [FA][FA] | [FA]3 [Fc] | [Af]>[Af] [Af]2 | [Ac]>[Ac] [Ac][GB] | [FA]>[FB] [FA][EG] | %16
w: hills take up the|song, Of|loy- al- ty,|loy- al- ty, yes,|loy- al- ty to|
w: out the watch- word|true, Of|loy- al- ty,|loy- al- ty, yes,|loy- al- ty to|
w: send the bu- gle|note, Of|loy- al- ty,|loy- al- ty, yes,|loy- al- ty to|
w: out the world’s do-|main, Of|loy- al- ty,|loy- al- ty, yes,|loy- al- ty to|
 F4 ||"^Refrain" [Fd]3 [Fd] | [Fd]>[DB] [Fd]2 | [Ff]3 [Af] | [Af]>[Ac] [Ac]2 | [F=B]3 [FB] | %22
w: Christ.||||||
w: Christ.|“On to|vic- to- ry!|On to|vic- to- ry!”|Cries our|
w: Christ.||||||
w: Christ.||||||
 [F=B][FB] [FA][FB] | c4- | [Bc]3 [Ac] | [CF]>[CF] [CF][CF] | [CF]3 [EG] | [FA]>[FA] [FA][FA] | %28
w: ||||||
w: great com- mand- er,|“On!”|* We’ll|move at His com-|mand, We’ll|soon pos- sess the|
w: ||||||
w: ||||||
 [FA]3 [Fc] | [Af]>[Af] [Af]2 | [Ac]>[Ac] [Ac][GB] | [FA]>[FB] [FA][EG] | F6 |] %33
w: |||||
w: land, Through|loy- al- ty,|loy- al- ty, Yes,|loy- al- ty to|Christ.|
w: |||||
w: |||||
V:2
 C | x4 | x4 | x4 | x4 | x4 | x4 | x4 | x4 | x4 | x4 | x4 | x4 | x4 | x4 | x4 | F4 || x4 | x4 | %19
 x4 | x4 | x4 | x4 | EFGA | x4 | x4 | x4 | x4 | x4 | x4 | x4 | x4 | F6 |] %33
V:3
 [C,C] | [F,A,]>[F,A,] [F,A,][F,A,] | [F,A,]3 [C,C] | [F,C]>[F,C] [F,C][F,C] | [F,C]3 [F,A,] | %5
w: ~|~ ~ ~ ~|~ ~|~ ~ ~ ~|~ ~|
 [F,C]>[F,C] [F,C]2 | [F,F]>[F,F] [F,F]2 | [F,C]>[F,C] [E,C][F,C] | [C,C]3 [C,C] | %9
w: ~ ~ ~|~ ~ ~|~ ~ ~ ~|~ ~|
 [F,A,]>[F,A,] [F,A,][F,A,] | [F,A,]3 [C,C] | [F,C]>[F,C] [F,C][F,C] | [F,C]3 [F,A,] | %13
w: ~ ~ ~ ~|~ ~|~ ~ ~ ~|~ ~|
 [F,C]>[F,C] [F,C]2 | [F,F]>[F,F] [F,F][B,,D] | [C,C]>[C,D] [C,C][C,B,] | [F,A,]4 || %17
w: ~ ~ ~|~ ~ ~ ~|~ ~ ~ ~|~|
 [B,,B,]3 [B,,B,] | [B,,B,]>[B,,B,] [B,,B,]2 | [F,A,]3 [F,C] | [F,C]>[F,F] [F,F]2 | [G,D]3 G, | %22
w: ~ ~|~ ~ ~|~ ~|~ ~ ~|~ ~|
 [G,,G,][G,,G,] [G,,G,][G,,G,] | G,A,B,C | [C,E]3 [F,F] | [F,A,]>[F,A,] [F,A,][F,A,] | %26
w: ~ ~ ~ great|com- mand- er, “On!”|||
 [F,A,]3 [C,C] | [F,C]>[F,C] [F,C][F,C] | [F,C]3 [F,A,] | [F,C]>[F,C] [F,C]2 | %30
w: ||||
 [F,F]>[F,F] [F,F][B,,D] | [C,C]>[C,D] [C,C][C,B,] | [F,A,]6 |] %33
w: |||
V:4
 x | x4 | x4 | x4 | x4 | x4 | x4 | x4 | x4 | x4 | x4 | x4 | x4 | x4 | x4 | x4 | x4 || x4 | x4 | %19
 x4 | x4 | x4 | x4 | C,4- | x4 | x4 | x4 | x4 | x4 | x4 | x4 | x4 | x6 |] %33

